svg/color/mrvlon.svg

<svg width="40" height="40" viewBox="0 0 40 40" fill="none" xmlns="http://www.w3.org/2000/svg">
<g clip-path="url(#clip0_819_3637)">
<path d="M20 0C31.0457 0 40 8.9543 40 20C40 31.0457 31.0457 40 20 40C8.95431 40 7.90517e-06 31.0457 0 20C6.58765e-07 8.95431 8.95431 1.97595e-06 20 0Z" fill="#D9D9D9"/>
<path d="M26 6C30.4183 6 34 9.58172 34 14V26C34 30.4183 30.4183 34 26 34H14C9.58172 34 6 30.4183 6 26V14C6 9.58172 9.58172 6 14 6H26Z" fill="black"/>
<g clip-path="url(#clip1_819_3637)">
<path d="M17.9566 17.9057L19.8727 19.8664C19.9172 19.9109 19.9618 19.9364 20 19.9364C20.0382 19.9364 20.0827 19.9109 20.1273 19.8664L22.0434 17.9057C22.0879 17.8612 22.1134 17.8166 22.1134 17.7784C22.1134 17.7147 22.0816 17.6893 22.0116 17.6893H17.9948C17.9247 17.6893 17.8929 17.7211 17.8929 17.7784C17.8866 17.8166 17.912 17.8612 17.9566 17.9057ZM29.1666 10.9352C29.1666 10.8652 29.1348 10.8334 29.0712 10.8334C29.033 10.8334 28.9948 10.8525 28.9566 10.8907L27.3842 12.4821V27.5052L28.9566 29.1094C28.9948 29.1476 29.033 29.1667 29.0712 29.1667C29.1348 29.1667 29.1666 29.1349 29.1666 29.0649V10.9352ZM10.8333 29.0649C10.8333 29.1349 10.8651 29.1667 10.9288 29.1667C10.967 29.1667 11.0052 29.1476 11.0434 29.1094L12.6157 27.5052V12.4821L11.0434 10.8907C11.0052 10.8525 10.9606 10.8334 10.9288 10.8334C10.8651 10.8334 10.8333 10.8652 10.8333 10.9352V29.0649ZM14.9201 14.8311H25.0862L26.5121 13.3797C26.5503 13.3415 26.5694 13.3033 26.5694 13.2651C26.5694 13.2014 26.5376 13.1696 26.4676 13.1696H13.5324C13.4624 13.1696 13.4305 13.2014 13.4305 13.2651C13.4305 13.3033 13.4496 13.3415 13.4878 13.3797L14.9201 14.8311ZM13.4878 26.6204C13.4496 26.6586 13.4305 26.6968 13.4305 26.735C13.4305 26.7987 13.4624 26.8241 13.5324 26.8241H26.4612C26.5312 26.8241 26.5631 26.7923 26.5631 26.735C26.5631 26.6968 26.544 26.6586 26.5058 26.6204L25.0798 25.169H14.9201L13.4878 26.6204ZM24.316 24.3924C24.3541 24.4306 24.3923 24.4497 24.4305 24.4497C24.4942 24.4497 24.5197 24.4179 24.5197 24.3478V15.6522C24.5197 15.5822 24.4878 15.5504 24.4305 15.5504C24.3923 15.5504 24.3541 15.5695 24.316 15.6077L22.8264 17.1227V22.8837L24.316 24.3924ZM17.1736 22.8774V17.1227L15.684 15.6077C15.6458 15.5695 15.6076 15.5504 15.5694 15.5504C15.5058 15.5504 15.4803 15.5886 15.4803 15.6522V24.3478C15.4803 24.4179 15.5121 24.4497 15.5694 24.4497C15.6076 24.4497 15.6458 24.4306 15.684 24.3924L17.1736 22.8774Z" fill="white"/>
</g>
</g>
<defs>
<clipPath id="clip0_819_3637">
<rect width="40" height="40" fill="white"/>
</clipPath>
<clipPath id="clip1_819_3637">
<rect width="20" height="20" fill="white" transform="translate(10 10)"/>
</clipPath>
</defs>
</svg>

<svg xmlns="http://www.w3.org/2000/svg" width="40" height="40" fill="none" viewBox="0 0 40 40"><g clip-path="url(#mrvlon_svg-a)"><path fill="#D9D9D9" d="M20 0c11.046 0 20 8.954 20 20s-8.954 20-20 20S0 31.046 0 20 8.954 0 20 0"/><path fill="#000" d="M26 6a8 8 0 0 1 8 8v12a8 8 0 0 1-8 8H14a8 8 0 0 1-8-8V14a8 8 0 0 1 8-8z"/><g clip-path="url(#mrvlon_svg-b)"><path fill="#fff" d="m17.957 17.906 1.916 1.96q.068.069.127.07.059-.001.127-.07l1.916-1.96q.069-.07.07-.128c0-.063-.031-.089-.101-.089h-4.017q-.104.001-.102.09c-.006.038.019.082.064.127m11.21-6.97q0-.104-.096-.103-.057 0-.114.058l-1.573 1.591v15.023l1.573 1.604q.057.058.114.058.096.002.096-.102zM10.833 29.064q0 .104.096.102.057 0 .114-.058l1.573-1.604V12.482l-1.573-1.591a.18.18 0 0 0-.114-.058q-.096-.002-.096.102zM14.92 14.83h10.166l1.426-1.451q.057-.058.057-.115.002-.096-.101-.095H13.532c-.07 0-.101.031-.101.095q0 .057.057.115zm-1.432 11.79q-.057.057-.057.114c0 .064.031.09.101.09h12.93c.07 0 .101-.033.101-.09q0-.057-.057-.115L25.08 25.17H14.92zm10.828-2.229q.057.058.114.058c.064 0 .09-.032.09-.102v-8.696q-.002-.104-.09-.102-.057 0-.114.058l-1.49 1.515v5.76zm-7.142-1.515v-5.754l-1.49-1.515q-.057-.058-.115-.058c-.063 0-.089.039-.089.102v8.696q.002.104.09.102.057 0 .114-.058z"/></g></g><defs><clipPath id="mrvlon_svg-a"><path fill="#fff" d="M0 0h40v40H0z"/></clipPath><clipPath id="mrvlon_svg-b"><path fill="#fff" d="M10 10h20v20H10z"/></clipPath></defs></svg>
